X:218
T: DIE TROMMEL SCHLAEGT ZUM KRIEG
N: B0706
O: Europa, Mitteleuropa, Deutschland
R: Scherz -, Spott -, anti - Kriegs - Lied
M: 4/4
L: 1/8
K: A
E2 | A3AA2A2 | A3FE2
E2 | F2F2G3E | A4A2
E2 | A3AA2A2 | A3FE2
E2 | F2F2G3E | A4A2
A2 | c3cc2e2 | d3cB2
A2 | B3BB2d2 | c3BA2
E2 | c3Ad3G | A4A2
A2 | c3cc2e2 | d3cB2
A2 | B3BB2d2 | c3BA2
E2 | c3Ad3G | A4A2

@@@ Tune index: 2436
